; generated by PrusaSlicer 2.4.0+win64 on 2022-11-10 at 08:44:10 UTC


;
;

;
;
; 

; external perimeters extrusion width = 0.45mm
; perimeters extrusion width = 0.45mm
; infill extrusion width = 0.45mm
; solid infill extrusion width = 0.45mm
; top infill extrusion width = 0.40mm
; first layer extrusion width = 0.42mm

M73 P0 R4
M107
;TYPE:Custom
G92 E0
M302 S0
G90
G21 ; set units to millimeters
G90 ; use absolute coordinates
M83 ; use relative distances for extrusion
M107
;LAYER_CHANGE
;Z:0.2
;HEIGHT:0.2
;BEFORE_LAYER_CHANGE
G92 E0.0
;0.2


G1 E-.01 F120
G1 Z.2 F360
;AFTER_LAYER_CHANGE
;0.2
; printing object podj.stl id:0 copy 0
G1 X.728 Y-.452 F480
G1 E.01 F120
M204 P20
;TYPE:Internal infill
;WIDTH:0.42
G1 F300
G1 X4.177 Y-.452 E.00409
G1 X4.337 Y-.905 E.00057
G1 X1.281 Y-.905 E.00362
G1 X1.52 Y-1.357 E.00061
G1 X4.498 Y-1.357 E.00353
G1 X4.65 Y-1.809 E.00057
G1 X1.758 Y-1.809 E.00343
M73 P1 R4
G1 X1.996 Y-2.262 E.00061
G1 X4.692 Y-2.262 E.0032
G1 X4.663 Y-2.458 E.00024
G1 X4.569 Y-2.714 E.00032
G1 X2.234 Y-2.714 E.00277
G1 X2.381 Y-2.946 E.00033
G1 X2.607 Y-3.166 E.00037
G1 X4.473 Y-3.166 E.00221
G1 E-.007 F120
;WIPE_START
G1 F384
G1 X4.464 Y-3.166 E-.00285
;WIPE_END
G1 E-.00015 F120
G1 Z.4 F360
G1 X3.456 Y1.809 F480
G1 Z.2 F360
G1 E.01 F120
G1 F300
G1 X.867 Y1.809 E.00307
M73 P2 R4
G1 X1.012 Y1.899 E.0002
G1 X1.358 Y2.262 E.00059
G1 X3.072 Y2.262 E.00203
G1 X2.886 Y2.714 E.00058
G1 X1.731 Y2.714 E.00137
G1 X2.103 Y3.166 E.00069
G1 X2.898 Y3.166 E.00094
G1 E-.007 F120
;WIPE_START
G1 F384
G1 X2.889 Y3.166 E-.00285
;WIPE_END
G1 E-.00015 F120
G1 Z.4 F360
G1 X-2.898 Y3.166 F480
G1 Z.2 F360
G1 E.01 F120
G1 F300
G1 X-2.103 Y3.166 E.00094
G1 X-1.731 Y2.714 E.00069
G1 X-2.886 Y2.714 E.00137
M73 P3 R4
G1 X-3.072 Y2.262 E.00058
G1 X-1.358 Y2.262 E.00203
G1 X-1.012 Y1.899 E.00059
G1 X-.867 Y1.809 E.0002
G1 X-3.258 Y1.809 E.00283
G1 X-3.444 Y1.357 E.00058
G1 X3.444 Y1.357 E.00817
G1 X3.63 Y.905 E.00058
M73 P4 R4
G1 X-3.63 Y.905 E.00861
G1 X-3.816 Y.452 E.00058
G1 X3.816 Y.452 E.00905
M73 P5 R4
G1 X4.002 Y0 E.00058
G1 X-4.002 Y0 E.00949
G1 X-4.177 Y-.452 E.00057
G1 X-1 Y-.452 E.00377
M73 P6 R4
G1 X-1.165 Y-.684 E.00034
G1 X-1.281 Y-.905 E.0003
G1 X-4.337 Y-.905 E.00362
G1 X-4.498 Y-1.357 E.00057
G1 X-1.52 Y-1.357 E.00353
G1 X-1.758 Y-1.809 E.00061
G1 X-4.65 Y-1.809 E.00343
G1 X-4.688 Y-1.978 E.0002
G1 X-4.692 Y-2.262 E.00034
G1 X-1.996 Y-2.262 E.0032
M73 P7 R4
G1 X-2.234 Y-2.714 E.00061
G1 X-4.569 Y-2.714 E.00277
G1 X-4.454 Y-2.911 E.00027
G1 X-4.291 Y-3.096 E.00029
G1 X-4.201 Y-3.166 E.00014
G1 X-2.336 Y-3.166 E.00221
; stop printing object podj.stl id:0 copy 0
;LAYER_CHANGE
;Z:0.4
;HEIGHT:0.2
;BEFORE_LAYER_CHANGE
G92 E0.0
;0.4


G1 E-.007 F120
;WIPE_START
G1 F384
G1 X-2.346 Y-3.166 E-.00285
;WIPE_END
G1 E-.00015 F120
G1 Z.4 F360
;AFTER_LAYER_CHANGE
;0.4
; printing object podj.stl id:0 copy 0
G1 Z.6
G1 X-4.523 Y-3.401 F480
G1 Z.4 F360
G1 E.01 F120
;WIDTH:0.45
G1 F300
G1 X-4.523 Y-.83 E.00329
G1 X-4.294 Y-.184 E.00088
G1 X-4.071 Y.358 E.00075
G1 X-4.071 Y-3.486 E.00492
M73 P8 R4
G1 X-3.737 Y-3.611 E.00046
G1 X-3.618 Y-3.626 E.00015
G1 X-3.618 Y1.458 E.00651
G1 X-3.166 Y2.559 E.00152
G1 X-3.166 Y-3.627 E.00792
M73 P9 R4
G1 X-2.901 Y-3.561 E.00035
G1 X-2.714 Y-3.473 E.00026
G1 X-2.714 Y3.541 E.00898
G1 X-2.6 Y3.616 E.00017
G1 X-2.5 Y3.645 E.00013
G1 X-2.396 Y3.647 E.00013
G1 X-2.262 Y3.606 E.00018
G1 X-2.262 Y-3.111 E.0086
M73 P10 R4
G1 X-2.077 Y-2.844 E.00041
G1 X-1.809 Y-2.336 E.00074
G1 X-1.809 Y3.124 E.00699
G1 X-1.357 Y2.575 E.00091
G1 X-1.357 Y-1.477 E.00519
G1 X-.995 Y-.789 E.001
M73 P11 R4
G1 X-.905 Y-.663 E.0002
G1 X-.905 Y2.073 E.0035
G1 X-.615 Y1.889 E.00044
G1 X-.452 Y1.833 E.00022
G1 X-.452 Y-.301 E.00273
G1 X-.299 Y-.236 E.00021
G1 X0 Y-.196 E.00039
G1 X0 Y1.751 E.00249
G1 X.312 Y1.785 E.0004
G1 X.452 Y1.833 E.00019
G1 X.452 Y-.301 E.00273
G1 X.585 Y-.358 E.00019
G1 X.828 Y-.555 E.0004
G1 X.905 Y-.663 E.00017
G1 X.905 Y2.073 E.0035
M73 P12 R4
G1 X1.105 Y2.269 E.00036
G1 X1.357 Y2.575 E.00051
G1 X1.357 Y-1.477 E.00519
G1 X1.809 Y-2.336 E.00124
G1 X1.809 Y3.124 E.00699
M73 P12 R3
G1 X2.111 Y3.49 E.00061
G1 X2.262 Y3.606 E.00024
G1 X2.262 Y-3.111 E.0086
M73 P13 R3
G1 X2.41 Y-3.27 E.00028
G1 X2.639 Y-3.437 E.00036
G1 X2.714 Y-3.473 E.00011
G1 X2.714 Y3.541 E.00898
G1 X2.827 Y3.383 E.00025
G1 X3.166 Y2.559 E.00114
M73 P14 R3
G1 X3.166 Y-3.627 E.00792
G1 X3.503 Y-3.642 E.00043
G1 X3.618 Y-3.626 E.00015
G1 X3.618 Y1.458 E.00651
G1 X4.071 Y.358 E.00152
G1 X4.071 Y-3.486 E.00492
M73 P15 R3
G1 X4.213 Y-3.411 E.00021
G1 X4.429 Y-3.242 E.00035
G1 X4.523 Y-3.135 E.00018
G1 X4.523 Y-.283 E.00365
; stop printing object podj.stl id:0 copy 0
;LAYER_CHANGE
;Z:0.6
;HEIGHT:0.2
;BEFORE_LAYER_CHANGE
G92 E0.0
;0.6


G1 E-.007 F120
;WIPE_START
G1 F384
G1 X4.523 Y-.292 E-.00285
;WIPE_END
G1 E-.00015 F120
G1 Z.6 F360
;AFTER_LAYER_CHANGE
;0.6
; printing object podj.stl id:0 copy 0
G1 X4.23 Y.452 F480
G1 E.01 F120
G1 F300
G1 X-4.032 Y.452 E.01057
M73 P16 R3
G1 X-3.846 Y.905 E.00063
G1 X3.846 Y.905 E.00984
G1 X3.66 Y1.357 E.00063
G1 X-3.66 Y1.357 E.00937
M73 P17 R3
G1 X-3.474 Y1.809 E.00063
G1 X3.474 Y1.809 E.00889
G1 X3.288 Y2.262 E.00063
G1 X1.098 Y2.262 E.0028
M73 P18 R3
G1 X1.472 Y2.714 E.00075
G1 X3.102 Y2.714 E.00209
G1 X2.916 Y3.166 E.00063
G1 X1.844 Y3.166 E.00137
G1 X2.111 Y3.49 E.00054
G1 X2.196 Y3.57 E.00015
G1 X2.285 Y3.618 E.00013
G1 X2.894 Y3.618 E.00078
G1 E-.007 F120
;WIPE_START
G1 F384
G1 X2.885 Y3.618 E-.00285
;WIPE_END
G1 E-.00015 F120
G1 Z.8 F360
G1 X-.835 Y2.262 F480
G1 Z.6 F360
G1 E.01 F120
G1 F300
G1 X-3.288 Y2.262 E.00314
G1 X-3.102 Y2.714 E.00063
G1 X-1.472 Y2.714 E.00209
G1 X-1.844 Y3.166 E.00075
M73 P19 R3
G1 X-2.916 Y3.166 E.00137
G1 X-2.77 Y3.484 E.00045
G1 X-2.694 Y3.561 E.00014
G1 X-2.6 Y3.616 E.00014
G1 X-1.98 Y3.618 E.00079
G1 E-.007 F120
;WIPE_START
G1 F384
G1 X-1.99 Y3.618 E-.00285
;WIPE_END
G1 E-.00015 F120
G1 Z.8 F360
G1 X-4.212 Y-3.618 F480
G1 Z.6 F360
G1 E.01 F120
G1 F300
G1 X-3.131 Y-3.618 E.00138
G1 X-2.901 Y-3.561 E.0003
G1 X-2.639 Y-3.437 E.00037
G1 X-2.41 Y-3.27 E.00036
G1 X-2.313 Y-3.166 E.00018
G1 X-4.496 Y-3.166 E.00279
G1 X-4.617 Y-3.029 E.00023
G1 X-4.786 Y-2.714 E.00046
G1 X-2.008 Y-2.714 E.00355
M73 P20 R3
G1 X-1.77 Y-2.262 E.00065
G1 X-4.894 Y-2.262 E.004
G1 X-4.887 Y-1.951 E.0004
G1 X-4.855 Y-1.809 E.00019
G1 X-1.532 Y-1.809 E.00425
G1 X-1.294 Y-1.357 E.00065
G1 X-4.71 Y-1.357 E.00437
G1 X-4.549 Y-.905 E.00061
M73 P21 R3
G1 X-1.055 Y-.905 E.00447
G1 X-.828 Y-.555 E.00053
G1 X-.701 Y-.452 E.00021
G1 X-4.389 Y-.452 E.00472
G1 X-4.218 Y0 E.00062
G1 X4.218 Y0 E.0108
M73 P22 R3
G1 X4.389 Y-.452 E.00062
G1 X.701 Y-.452 E.00472
G1 X.828 Y-.555 E.00021
G1 X1.055 Y-.905 E.00053
G1 X4.549 Y-.905 E.00447
G1 X4.71 Y-1.357 E.00061
G1 X1.294 Y-1.357 E.00437
M73 P23 R3
G1 X1.532 Y-1.809 E.00065
G1 X4.855 Y-1.809 E.00425
G1 X4.887 Y-1.951 E.00019
G1 X4.894 Y-2.262 E.0004
G1 X1.77 Y-2.262 E.004
G1 X2.008 Y-2.714 E.00065
G1 X4.786 Y-2.714 E.00355
G1 X4.617 Y-3.029 E.00046
G1 X4.496 Y-3.166 E.00023
G1 X2.313 Y-3.166 E.00279
M73 P24 R3
G1 X2.41 Y-3.27 E.00018
G1 X2.639 Y-3.437 E.00036
G1 X2.901 Y-3.561 E.00037
G1 X3.131 Y-3.618 E.0003
G1 X4.212 Y-3.618 E.00138
; stop printing object podj.stl id:0 copy 0
;LAYER_CHANGE
;Z:0.8
;HEIGHT:0.2
;BEFORE_LAYER_CHANGE
G92 E0.0
;0.8


G1 E-.007 F120
;WIPE_START
G1 F384
G1 X4.202 Y-3.618 E-.00285
;WIPE_END
G1 E-.00015 F120
G1 Z.8 F360
;AFTER_LAYER_CHANGE
;0.8
; printing object podj.stl id:0 copy 0
G1 Z1
G1 X4.523 Y-.283 F480
G1 Z.8 F360
G1 E.01 F120
G1 F300
G1 X4.523 Y-3.135 E.00365
G1 X4.429 Y-3.242 E.00018
G1 X4.213 Y-3.411 E.00035
G1 X4.071 Y-3.486 E.00021
G1 X4.071 Y.358 E.00492
G1 X3.618 Y1.458 E.00152
M73 P25 R3
G1 X3.618 Y-3.626 E.00651
G1 X3.465 Y-3.647 E.0002
G1 X3.166 Y-3.627 E.00038
G1 X3.166 Y2.559 E.00792
G1 X2.827 Y3.383 E.00114
G1 X2.714 Y3.541 E.00025
M73 P26 R3
G1 X2.714 Y-3.473 E.00898
G1 X2.639 Y-3.437 E.00011
G1 X2.41 Y-3.27 E.00036
G1 X2.262 Y-3.111 E.00028
G1 X2.262 Y3.606 E.0086
M73 P27 R3
G1 X2.111 Y3.49 E.00024
G1 X1.809 Y3.124 E.00061
G1 X1.809 Y-2.336 E.00699
G1 X1.357 Y-1.477 E.00124
G1 X1.357 Y2.575 E.00519
G1 X1.105 Y2.269 E.00051
G1 X.905 Y2.073 E.00036
G1 X.905 Y-.663 E.0035
M73 P28 R3
G1 X.828 Y-.555 E.00017
G1 X.585 Y-.358 E.0004
G1 X.452 Y-.301 E.00019
G1 X.452 Y1.833 E.00273
G1 X.312 Y1.785 E.00019
G1 X0 Y1.751 E.0004
G1 X0 Y-.196 E.00249
G1 X-.299 Y-.236 E.00039
G1 X-.452 Y-.301 E.00021
G1 X-.452 Y1.833 E.00273
G1 X-.615 Y1.889 E.00022
G1 X-.905 Y2.073 E.00044
G1 X-.905 Y-.663 E.0035
G1 X-.995 Y-.789 E.0002
G1 X-1.357 Y-1.477 E.001
G1 X-1.357 Y2.575 E.00519
M73 P29 R3
G1 X-1.809 Y3.124 E.00091
G1 X-1.809 Y-2.336 E.00699
G1 X-2.077 Y-2.844 E.00074
G1 X-2.262 Y-3.111 E.00041
G1 X-2.262 Y3.606 E.0086
M73 P30 R3
G1 X-2.396 Y3.647 E.00018
G1 X-2.5 Y3.645 E.00013
G1 X-2.6 Y3.616 E.00013
G1 X-2.714 Y3.541 E.00017
G1 X-2.714 Y-3.473 E.00898
G1 X-2.901 Y-3.561 E.00026
G1 X-3.166 Y-3.627 E.00035
G1 X-3.166 Y2.559 E.00792
M73 P31 R3
G1 X-3.618 Y1.458 E.00152
G1 X-3.618 Y-3.626 E.00651
G1 X-3.737 Y-3.611 E.00015
G1 X-4.071 Y-3.486 E.00046
G1 X-4.071 Y.358 E.00492
M73 P32 R3
G1 X-4.294 Y-.184 E.00075
G1 X-4.523 Y-.83 E.00088
G1 X-4.523 Y-3.401 E.00329
; stop printing object podj.stl id:0 copy 0
;LAYER_CHANGE
;Z:1
;HEIGHT:0.2
;BEFORE_LAYER_CHANGE
G92 E0.0
;1


G1 E-.007 F120
;WIPE_START
G1 F384
G1 X-4.523 Y-3.391 E-.00285
;WIPE_END
G1 E-.00015 F120
G1 Z1 F360
;AFTER_LAYER_CHANGE
;1
; printing object podj.stl id:0 copy 0
G1 X-4.212 Y-3.618 F480
G1 E.01 F120
G1 F300
G1 X-3.131 Y-3.618 E.00138
G1 X-2.901 Y-3.561 E.0003
G1 X-2.639 Y-3.437 E.00037
G1 X-2.41 Y-3.27 E.00036
G1 X-2.313 Y-3.166 E.00018
G1 X-4.496 Y-3.166 E.00279
G1 X-4.617 Y-3.029 E.00023
G1 X-4.786 Y-2.714 E.00046
G1 X-2.008 Y-2.714 E.00355
G1 X-1.77 Y-2.262 E.00065
M73 P33 R3
G1 X-4.894 Y-2.262 E.004
G1 X-4.887 Y-1.951 E.0004
G1 X-4.855 Y-1.809 E.00019
G1 X-1.532 Y-1.809 E.00425
G1 X-1.294 Y-1.357 E.00065
G1 X-4.71 Y-1.357 E.00437
G1 X-4.549 Y-.905 E.00061
G1 X-1.055 Y-.905 E.00447
M73 P34 R3
G1 X-.828 Y-.555 E.00053
G1 X-.701 Y-.452 E.00021
G1 X-4.389 Y-.452 E.00472
G1 X-4.218 Y0 E.00062
G1 X4.218 Y0 E.0108
M73 P35 R2
G1 X4.389 Y-.452 E.00062
G1 X.701 Y-.452 E.00472
G1 X.828 Y-.555 E.00021
G1 X1.055 Y-.905 E.00053
G1 X4.549 Y-.905 E.00447
G1 X4.71 Y-1.357 E.00061
G1 X1.294 Y-1.357 E.00437
G1 X1.532 Y-1.809 E.00065
G1 X4.855 Y-1.809 E.00425
M73 P36 R2
G1 X4.887 Y-1.951 E.00019
G1 X4.894 Y-2.262 E.0004
G1 X1.77 Y-2.262 E.004
G1 X2.008 Y-2.714 E.00065
G1 X4.786 Y-2.714 E.00355
G1 X4.617 Y-3.029 E.00046
G1 X4.496 Y-3.166 E.00023
G1 X2.313 Y-3.166 E.00279
G1 X2.41 Y-3.27 E.00018
G1 X2.639 Y-3.437 E.00036
G1 X2.901 Y-3.561 E.00037
G1 X3.131 Y-3.618 E.0003
G1 X4.212 Y-3.618 E.00138
M73 P37 R2
G1 E-.007 F120
;WIPE_START
G1 F384
G1 X4.202 Y-3.618 E-.00285
;WIPE_END
G1 E-.00015 F120
G1 Z1.2 F360
G1 X4.23 Y.452 F480
G1 Z1 F360
G1 E.01 F120
G1 F300
G1 X-4.032 Y.452 E.01057
G1 X-3.846 Y.905 E.00063
G1 X3.846 Y.905 E.00984
M73 P38 R2
G1 X3.66 Y1.357 E.00063
G1 X-3.66 Y1.357 E.00937
M73 P39 R2
G1 X-3.474 Y1.809 E.00063
G1 X3.474 Y1.809 E.00889
G1 X3.288 Y2.262 E.00063
G1 X1.098 Y2.262 E.0028
G1 X1.472 Y2.714 E.00075
G1 X3.102 Y2.714 E.00209
G1 X2.916 Y3.166 E.00063
M73 P40 R2
G1 X1.844 Y3.166 E.00137
G1 X2.111 Y3.49 E.00054
G1 X2.196 Y3.57 E.00015
G1 X2.285 Y3.618 E.00013
G1 X2.894 Y3.618 E.00078
G1 E-.007 F120
;WIPE_START
G1 F384
G1 X2.885 Y3.618 E-.00285
;WIPE_END
G1 E-.00015 F120
G1 Z1.2 F360
G1 X-.835 Y2.262 F480
G1 Z1 F360
G1 E.01 F120
G1 F300
G1 X-3.288 Y2.262 E.00314
G1 X-3.102 Y2.714 E.00063
G1 X-1.472 Y2.714 E.00209
G1 X-1.844 Y3.166 E.00075
G1 X-2.916 Y3.166 E.00137
G1 X-2.77 Y3.484 E.00045
G1 X-2.694 Y3.561 E.00014
G1 X-2.6 Y3.616 E.00014
G1 X-1.98 Y3.618 E.00079
; stop printing object podj.stl id:0 copy 0
;LAYER_CHANGE
;Z:1.2
;HEIGHT:0.2
;BEFORE_LAYER_CHANGE
G92 E0.0
;1.2


G1 E-.007 F120
;WIPE_START
G1 F384
G1 X-1.99 Y3.618 E-.00285
;WIPE_END
G1 E-.00015 F120
G1 Z1.2 F360
;AFTER_LAYER_CHANGE
;1.2
; printing object podj.stl id:0 copy 0
G1 Z1.4
G1 X-4.523 Y-3.401 F480
M73 P41 R2
G1 Z1.2 F360
G1 E.01 F120
G1 F300
G1 X-4.523 Y-.83 E.00329
G1 X-4.294 Y-.184 E.00088
G1 X-4.071 Y.358 E.00075
G1 X-4.071 Y-3.486 E.00492
G1 X-3.737 Y-3.611 E.00046
G1 X-3.618 Y-3.626 E.00015
G1 X-3.618 Y1.458 E.00651
M73 P42 R2
G1 X-3.166 Y2.559 E.00152
G1 X-3.166 Y-3.627 E.00792
G1 X-2.901 Y-3.561 E.00035
G1 X-2.714 Y-3.473 E.00026
G1 X-2.714 Y3.541 E.00898
M73 P43 R2
G1 X-2.6 Y3.616 E.00017
G1 X-2.5 Y3.645 E.00013
G1 X-2.396 Y3.647 E.00013
G1 X-2.262 Y3.606 E.00018
G1 X-2.262 Y-3.111 E.0086
G1 X-2.077 Y-2.844 E.00041
G1 X-1.809 Y-2.336 E.00074
M73 P44 R2
G1 X-1.809 Y3.124 E.00699
G1 X-1.357 Y2.575 E.00091
G1 X-1.357 Y-1.477 E.00519
G1 X-.995 Y-.789 E.001
G1 X-.905 Y-.663 E.0002
G1 X-.905 Y2.073 E.0035
M73 P45 R2
G1 X-.615 Y1.889 E.00044
G1 X-.452 Y1.833 E.00022
G1 X-.452 Y-.301 E.00273
G1 X-.299 Y-.236 E.00021
G1 X0 Y-.196 E.00039
G1 X0 Y1.751 E.00249
G1 X.312 Y1.785 E.0004
G1 X.452 Y1.833 E.00019
G1 X.452 Y-.301 E.00273
G1 X.585 Y-.358 E.00019
G1 X.828 Y-.555 E.0004
G1 X.905 Y-.663 E.00017
G1 X.905 Y2.073 E.0035
G1 X1.105 Y2.269 E.00036
G1 X1.357 Y2.575 E.00051
G1 X1.357 Y-1.477 E.00519
M73 P46 R2
G1 X1.809 Y-2.336 E.00124
G1 X1.809 Y3.124 E.00699
G1 X2.111 Y3.49 E.00061
G1 X2.262 Y3.606 E.00024
G1 X2.262 Y-3.111 E.0086
M73 P47 R2
G1 X2.41 Y-3.27 E.00028
G1 X2.639 Y-3.437 E.00036
G1 X2.714 Y-3.473 E.00011
G1 X2.714 Y3.541 E.00898
G1 X2.827 Y3.383 E.00025
G1 X3.166 Y2.559 E.00114
G1 X3.166 Y-3.627 E.00792
M73 P48 R2
G1 X3.465 Y-3.647 E.00038
G1 X3.618 Y-3.626 E.0002
G1 X3.618 Y1.458 E.00651
G1 X4.071 Y.358 E.00152
G1 X4.071 Y-3.486 E.00492
M73 P49 R2
G1 X4.213 Y-3.411 E.00021
G1 X4.429 Y-3.242 E.00035
G1 X4.523 Y-3.135 E.00018
G1 X4.523 Y-.283 E.00365
; stop printing object podj.stl id:0 copy 0
;LAYER_CHANGE
;Z:1.4
;HEIGHT:0.2
;BEFORE_LAYER_CHANGE
G92 E0.0
;1.4


G1 E-.007 F120
;WIPE_START
G1 F384
G1 X4.523 Y-.292 E-.00285
;WIPE_END
G1 E-.00015 F120
G1 Z1.4 F360
;AFTER_LAYER_CHANGE
;1.4
; printing object podj.stl id:0 copy 0
G1 X4.23 Y.452 F480
G1 E.01 F120
G1 F300
G1 X-4.032 Y.452 E.01057
G1 X-3.846 Y.905 E.00063
G1 X3.846 Y.905 E.00984
M73 P50 R2
G1 X3.66 Y1.357 E.00063
G1 X-3.66 Y1.357 E.00937
M73 P51 R2
G1 X-3.474 Y1.809 E.00063
G1 X3.474 Y1.809 E.00889
G1 X3.288 Y2.262 E.00063
G1 X1.098 Y2.262 E.0028
G1 X1.472 Y2.714 E.00075
G1 X3.102 Y2.714 E.00209
M73 P52 R2
G1 X2.916 Y3.166 E.00063
G1 X1.844 Y3.166 E.00137
G1 X2.111 Y3.49 E.00054
G1 X2.196 Y3.57 E.00015
G1 X2.285 Y3.618 E.00013
G1 X2.894 Y3.618 E.00078
G1 E-.007 F120
;WIPE_START
G1 F384
G1 X2.885 Y3.618 E-.00285
;WIPE_END
G1 E-.00015 F120
G1 Z1.6 F360
G1 X-.835 Y2.262 F480
G1 Z1.4 F360
G1 E.01 F120
G1 F300
G1 X-3.288 Y2.262 E.00314
G1 X-3.102 Y2.714 E.00063
G1 X-1.472 Y2.714 E.00209
G1 X-1.844 Y3.166 E.00075
G1 X-2.916 Y3.166 E.00137
G1 X-2.77 Y3.484 E.00045
G1 X-2.694 Y3.561 E.00014
G1 X-2.6 Y3.616 E.00014
G1 X-1.98 Y3.618 E.00079
M73 P53 R2
G1 E-.007 F120
;WIPE_START
G1 F384
G1 X-1.99 Y3.618 E-.00285
;WIPE_END
G1 E-.00015 F120
G1 Z1.6 F360
G1 X-4.212 Y-3.618 F480
G1 Z1.4 F360
G1 E.01 F120
G1 F300
G1 X-3.131 Y-3.618 E.00138
G1 X-2.901 Y-3.561 E.0003
G1 X-2.639 Y-3.437 E.00037
G1 X-2.41 Y-3.27 E.00036
G1 X-2.313 Y-3.166 E.00018
G1 X-4.496 Y-3.166 E.00279
G1 X-4.617 Y-3.029 E.00023
G1 X-4.786 Y-2.714 E.00046
G1 X-2.008 Y-2.714 E.00355
G1 X-1.77 Y-2.262 E.00065
G1 X-4.894 Y-2.262 E.004
M73 P54 R2
G1 X-4.887 Y-1.951 E.0004
G1 X-4.855 Y-1.809 E.00019
G1 X-1.532 Y-1.809 E.00425
G1 X-1.294 Y-1.357 E.00065
G1 X-4.71 Y-1.357 E.00437
G1 X-4.549 Y-.905 E.00061
G1 X-1.055 Y-.905 E.00447
M73 P55 R2
G1 X-.828 Y-.555 E.00053
G1 X-.701 Y-.452 E.00021
G1 X-4.389 Y-.452 E.00472
G1 X-4.218 Y0 E.00062
G1 X4.218 Y0 E.0108
M73 P56 R2
G1 X4.389 Y-.452 E.00062
G1 X.701 Y-.452 E.00472
G1 X.828 Y-.555 E.00021
G1 X1.055 Y-.905 E.00053
G1 X4.549 Y-.905 E.00447
M73 P56 R1
G1 X4.71 Y-1.357 E.00061
G1 X1.294 Y-1.357 E.00437
G1 X1.532 Y-1.809 E.00065
G1 X4.855 Y-1.809 E.00425
M73 P57 R1
G1 X4.887 Y-1.951 E.00019
G1 X4.894 Y-2.262 E.0004
G1 X1.77 Y-2.262 E.004
G1 X2.008 Y-2.714 E.00065
G1 X4.786 Y-2.714 E.00355
G1 X4.617 Y-3.029 E.00046
G1 X4.496 Y-3.166 E.00023
