; generated by PrusaSlicer 2.4.0+win64 on 2022-10-18 at 10:12:33 UTC


;
;

;
;
; 

; external perimeters extrusion width = 0.45mm
; perimeters extrusion width = 0.45mm
; infill extrusion width = 0.45mm
; solid infill extrusion width = 0.45mm
; top infill extrusion width = 0.40mm
; first layer extrusion width = 0.42mm


;TYPE:Custom
G92 E0
M302 S0
G90
 ; set units to millimeters
 ; use absolute coordinates
M83 ; use relative distances for extrusion

;LAYER_CHANGE
;Z:0.2
;HEIGHT:0.2
;BEFORE_LAYER_CHANGE
G92 E0.0
;0.2


G1 E-.01 F120
G1 Z.2 F360
;AFTER_LAYER_CHANGE
;0.2
; printing object Podzj_r.stl id:0 copy 0
G1 Z.4
G1 X-8.187 Y-2.169 F480
G1 Z.2 F360
G1 E.01 F120
M204 P800
;TYPE:Internal infill
;WIDTH:0.42
G1 F300
G1 X-10.053 Y-2.169 E.00124
G1 X-10.279 Y-1.949 E.00021
G1 X-10.426 Y-1.717 E.00018
G1 X-8.091 Y-1.717 E.00156
G1 X-7.997 Y-1.461 E.00018
G1 X-7.969 Y-1.264 E.00013
G1 X-10.664 Y-1.264 E.0018
M73 P1 R4
G1 X-10.902 Y-.812 E.00034
G1 X-8.01 Y-.812 E.00193
G1 X-8.162 Y-.36 E.00032
G1 X-11.141 Y-.36 E.00199
G1 X-11.379 Y.092 E.00034
G1 X-8.323 Y.092 E.00204
G1 X-8.484 Y.545 E.00032
G1 X-11.932 Y.545 E.0023
M204 P1000
M73 P2 R4
G1 E-.007 F120
;WIPE_START
G1 F384
G1 X-11.923 Y.545 E-.00285
;WIPE_END
G1 E-.00015 F120
G1 Z.4 F360
G1 X-9.204 Y2.806 F480
G1 Z.2 F360
G1 E.01 F120
M204 P800
G1 F300
G1 X-11.793 Y2.806 E.00173
G1 X-11.648 Y2.896 E.00011
G1 X-11.302 Y3.259 E.00033
G1 X-9.588 Y3.259 E.00114
G1 X-9.774 Y3.711 E.00033
G1 X-10.93 Y3.711 E.00077
G1 X-10.557 Y4.163 E.00039
G1 X-9.762 Y4.163 E.00053
M204 P1000
G1 E-.007 F120
;WIPE_START
G1 F384
G1 X-9.772 Y4.163 E-.00285
;WIPE_END
G1 E-.00015 F120
G1 Z.4 F360
G1 X-15.558 Y4.163 F480
M73 P3 R4
G1 Z.2 F360
G1 E.01 F120
M204 P800
G1 F300
G1 X-14.763 Y4.163 E.00053
G1 X-14.391 Y3.711 E.00039
G1 X-15.546 Y3.711 E.00077
G1 X-15.732 Y3.259 E.00033
G1 X-14.018 Y3.259 E.00114
G1 X-13.672 Y2.896 E.00033
G1 X-13.527 Y2.806 E.00011
G1 X-15.918 Y2.806 E.00159
G1 X-16.104 Y2.354 E.00033
G1 X-9.216 Y2.354 E.00459
M73 P4 R4
G1 X-9.03 Y1.902 E.00033
G1 X-16.29 Y1.902 E.00484
G1 X-16.476 Y1.449 E.00033
G1 X-8.844 Y1.449 E.00509
M73 P5 R4
G1 X-8.659 Y.997 E.00033
G1 X-16.662 Y.997 E.00534
M73 P6 R4
G1 X-16.837 Y.545 E.00032
G1 X-13.661 Y.545 E.00212
G1 X-13.825 Y.313 E.00019
G1 X-13.942 Y.092 E.00017
G1 X-16.997 Y.092 E.00204
G1 X-17.158 Y-.36 E.00032
G1 X-14.18 Y-.36 E.00199
G1 X-14.418 Y-.812 E.00034
G1 X-17.311 Y-.812 E.00193
M73 P7 R4
G1 X-17.349 Y-.98 E.00012
G1 X-17.352 Y-1.264 E.00019
G1 X-14.656 Y-1.264 E.0018
G1 X-14.895 Y-1.717 E.00034
G1 X-17.229 Y-1.717 E.00156
G1 X-17.114 Y-1.914 E.00015
G1 X-16.952 Y-2.099 E.00016
G1 X-16.862 Y-2.169 E.00008
G1 X-14.996 Y-2.169 E.00124
M204 P1000
; stop printing object Podzj_r.stl id:0 copy 0
;LAYER_CHANGE
;Z:0.4
;HEIGHT:0.2
;BEFORE_LAYER_CHANGE
G92 E0.0
;0.4


G1 E-.007 F120
;WIPE_START
G1 F384
G1 X-15.006 Y-2.169 E-.00285
;WIPE_END
G1 E-.00015 F120
G1 Z.4 F360
;AFTER_LAYER_CHANGE
;0.4
; printing object Podzj_r.stl id:0 copy 0
G1 Z.6
G1 X-17.183 Y-2.404 F480
G1 Z.4 F360
G1 E.01 F120
;WIDTH:0.45
G1 F300
G1 X-17.183 Y.167 E.00185
M73 P8 R4
G1 X-16.954 Y.813 E.00049
G1 X-16.731 Y1.355 E.00042
G1 X-16.731 Y-2.489 E.00277
G1 X-16.397 Y-2.614 E.00026
G1 X-16.279 Y-2.629 E.00009
G1 X-16.279 Y2.455 E.00366
G1 X-15.826 Y3.556 E.00086
G1 X-15.826 Y-2.63 E.00445
M73 P9 R4
G1 X-15.561 Y-2.564 E.0002
G1 X-15.374 Y-2.476 E.00015
G1 X-15.374 Y4.538 E.00505
G1 X-15.261 Y4.614 E.0001
G1 X-15.161 Y4.642 E.00007
G1 X-15.057 Y4.644 E.00007
G1 X-14.922 Y4.603 E.0001
G1 X-14.922 Y-2.114 E.00484
M73 P10 R4
G1 X-14.737 Y-1.847 E.00023
G1 X-14.469 Y-1.339 E.00041
G1 X-14.469 Y4.121 E.00393
G1 X-14.017 Y3.572 E.00051
G1 X-14.017 Y-.48 E.00292
M73 P11 R4
G1 X-13.655 Y.208 E.00056
G1 X-13.565 Y.334 E.00011
G1 X-13.565 Y3.07 E.00197
G1 X-13.276 Y2.886 E.00025
G1 X-13.113 Y2.83 E.00012
G1 X-13.113 Y.696 E.00154
G1 X-12.959 Y.761 E.00012
G1 X-12.66 Y.801 E.00022
G1 X-12.66 Y2.748 E.0014
G1 X-12.349 Y2.782 E.00023
G1 X-12.208 Y2.83 E.00011
G1 X-12.208 Y.696 E.00154
M73 P12 R4
G1 X-12.075 Y.639 E.0001
G1 X-11.832 Y.442 E.00022
G1 X-11.756 Y.334 E.0001
G1 X-11.756 Y3.07 E.00197
G1 X-11.555 Y3.266 E.0002
G1 X-11.303 Y3.572 E.00029
G1 X-11.303 Y-.48 E.00292
M73 P12 R3
G1 X-10.851 Y-1.339 E.0007
G1 X-10.851 Y4.121 E.00393
M73 P13 R3
G1 X-10.55 Y4.487 E.00034
G1 X-10.399 Y4.603 E.00014
G1 X-10.399 Y-2.114 E.00484
G1 X-10.25 Y-2.273 E.00016
G1 X-10.021 Y-2.44 E.0002
G1 X-9.946 Y-2.476 E.00006
G1 X-9.946 Y4.538 E.00505
M73 P14 R3
G1 X-9.833 Y4.38 E.00014
G1 X-9.494 Y3.556 E.00064
G1 X-9.494 Y-2.63 E.00445
G1 X-9.157 Y-2.645 E.00024
G1 X-9.042 Y-2.629 E.00008
G1 X-9.042 Y2.455 E.00366
M73 P15 R3
G1 X-8.589 Y1.355 E.00086
G1 X-8.589 Y-2.489 E.00277
G1 X-8.447 Y-2.414 E.00012
G1 X-8.231 Y-2.245 E.0002
G1 X-8.137 Y-2.138 E.0001
G1 X-8.137 Y.714 E.00205
; stop printing object Podzj_r.stl id:0 copy 0
;LAYER_CHANGE
;Z:0.6
;HEIGHT:0.2
;BEFORE_LAYER_CHANGE
G92 E0.0
;0.6


G1 E-.007 F120
;WIPE_START
G1 F384
G1 X-8.137 Y.705 E-.00285
;WIPE_END
G1 E-.00015 F120
G1 Z.6 F360
;AFTER_LAYER_CHANGE
;0.6
; printing object Podzj_r.stl id:0 copy 0
G1 X-8.43 Y1.449 F480
G1 E.01 F120
G1 F300
G1 X-16.692 Y1.449 E.00595
M73 P16 R3
G1 X-16.506 Y1.902 E.00035
G1 X-8.814 Y1.902 E.00554
M73 P17 R3
G1 X-9 Y2.354 E.00035
G1 X-16.32 Y2.354 E.00527
G1 X-16.134 Y2.806 E.00035
G1 X-9.186 Y2.806 E.005
M73 P18 R3
G1 X-9.372 Y3.259 E.00035
G1 X-11.563 Y3.259 E.00158
G1 X-11.189 Y3.711 E.00042
G1 X-9.558 Y3.711 E.00117
G1 X-9.744 Y4.163 E.00035
G1 X-10.816 Y4.163 E.00077
G1 X-10.55 Y4.487 E.0003
G1 X-10.464 Y4.567 E.00008
G1 X-10.375 Y4.616 E.00007
G1 X-9.766 Y4.616 E.00044
G1 E-.007 F120
;WIPE_START
G1 F384
G1 X-9.776 Y4.616 E-.00285
;WIPE_END
G1 E-.00015 F120
G1 Z.8 F360
G1 X-13.496 Y3.259 F480
G1 Z.6 F360
G1 E.01 F120
G1 F300
G1 X-15.949 Y3.259 E.00177
M73 P19 R3
G1 X-15.763 Y3.711 E.00035
G1 X-14.132 Y3.711 E.00117
G1 X-14.504 Y4.163 E.00042
G1 X-15.577 Y4.163 E.00077
G1 X-15.43 Y4.481 E.00025
G1 X-15.354 Y4.558 E.00008
G1 X-15.261 Y4.614 E.00008
G1 X-14.64 Y4.616 E.00045
G1 E-.007 F120
;WIPE_START
G1 F384
G1 X-14.65 Y4.616 E-.00285
;WIPE_END
G1 E-.00015 F120
G1 Z.8 F360
G1 X-16.872 Y-2.621 F480
G1 Z.6 F360
G1 E.01 F120
G1 F300
G1 X-15.791 Y-2.621 E.00078
G1 X-15.561 Y-2.564 E.00017
G1 X-15.299 Y-2.44 E.00021
G1 X-15.07 Y-2.273 E.0002
G1 X-14.973 Y-2.169 E.0001
G1 X-17.156 Y-2.169 E.00157
M73 P20 R3
G1 X-17.277 Y-2.032 E.00013
G1 X-17.446 Y-1.717 E.00026
G1 X-14.669 Y-1.717 E.002
G1 X-14.43 Y-1.264 E.00037
G1 X-17.554 Y-1.264 E.00225
G1 X-17.548 Y-.954 E.00022
G1 X-17.516 Y-.812 E.0001
G1 X-14.192 Y-.812 E.00239
G1 X-13.954 Y-.36 E.00037
G1 X-17.37 Y-.36 E.00246
M73 P21 R3
G1 X-17.21 Y.092 E.00035
G1 X-13.715 Y.092 E.00252
G1 X-13.488 Y.442 E.0003
G1 X-13.362 Y.545 E.00012
G1 X-17.049 Y.545 E.00265
G1 X-16.878 Y.997 E.00035
G1 X-8.442 Y.997 E.00607
M73 P22 R3
G1 X-8.271 Y.545 E.00035
G1 X-11.959 Y.545 E.00265
G1 X-11.832 Y.442 E.00012
G1 X-11.605 Y.092 E.0003
G1 X-8.111 Y.092 E.00252
M73 P23 R3
G1 X-7.95 Y-.36 E.00035
G1 X-11.367 Y-.36 E.00246
G1 X-11.128 Y-.812 E.00037
G1 X-7.805 Y-.812 E.00239
G1 X-7.773 Y-.954 E.0001
G1 X-7.767 Y-1.264 E.00022
G1 X-10.89 Y-1.264 E.00225
G1 X-10.652 Y-1.717 E.00037
G1 X-7.875 Y-1.717 E.002
M73 P24 R3
G1 X-8.044 Y-2.032 E.00026
G1 X-8.164 Y-2.169 E.00013
G1 X-10.347 Y-2.169 E.00157
G1 X-10.25 Y-2.273 E.0001
G1 X-10.021 Y-2.44 E.0002
G1 X-9.759 Y-2.564 E.00021
G1 X-9.529 Y-2.621 E.00017
G1 X-8.449 Y-2.621 E.00078
; stop printing object Podzj_r.stl id:0 copy 0
;LAYER_CHANGE
;Z:0.8
;HEIGHT:0.2
;BEFORE_LAYER_CHANGE
G92 E0.0
;0.8


G1 E-.007 F120
;WIPE_START
G1 F384
G1 X-8.458 Y-2.621 E-.00285
;WIPE_END
G1 E-.00015 F120
G1 Z.8 F360
;AFTER_LAYER_CHANGE
;0.8
; printing object Podzj_r.stl id:0 copy 0
G1 Z1
G1 X-8.137 Y.714 F480
G1 Z.8 F360
G1 E.01 F120
G1 F300
G1 X-8.137 Y-2.138 E.00205
G1 X-8.231 Y-2.245 E.0001
G1 X-8.447 Y-2.414 E.0002
G1 X-8.589 Y-2.489 E.00012
G1 X-8.589 Y1.355 E.00277
M73 P25 R3
G1 X-9.042 Y2.455 E.00086
G1 X-9.042 Y-2.629 E.00366
G1 X-9.195 Y-2.65 E.00011
G1 X-9.494 Y-2.63 E.00022
G1 X-9.494 Y3.556 E.00445
M73 P26 R3
G1 X-9.833 Y4.38 E.00064
G1 X-9.946 Y4.538 E.00014
G1 X-9.946 Y-2.476 E.00505
G1 X-10.021 Y-2.44 E.00006
G1 X-10.25 Y-2.273 E.0002
G1 X-10.399 Y-2.114 E.00016
G1 X-10.399 Y4.603 E.00484
M73 P27 R3
G1 X-10.55 Y4.487 E.00014
G1 X-10.851 Y4.121 E.00034
G1 X-10.851 Y-1.339 E.00393
G1 X-11.303 Y-.48 E.0007
G1 X-11.303 Y3.572 E.00292
M73 P28 R3
G1 X-11.555 Y3.266 E.00029
G1 X-11.756 Y3.07 E.0002
G1 X-11.756 Y.334 E.00197
G1 X-11.832 Y.442 E.0001
G1 X-12.075 Y.639 E.00022
G1 X-12.208 Y.696 E.0001
G1 X-12.208 Y2.83 E.00154
G1 X-12.349 Y2.782 E.00011
G1 X-12.66 Y2.748 E.00023
G1 X-12.66 Y.801 E.0014
G1 X-12.959 Y.761 E.00022
G1 X-13.113 Y.696 E.00012
G1 X-13.113 Y2.83 E.00154
G1 X-13.276 Y2.886 E.00012
G1 X-13.565 Y3.07 E.00025
G1 X-13.565 Y.334 E.00197
M73 P29 R3
G1 X-13.655 Y.208 E.00011
G1 X-14.017 Y-.48 E.00056
G1 X-14.017 Y3.572 E.00292
G1 X-14.469 Y4.121 E.00051
G1 X-14.469 Y-1.339 E.00393
G1 X-14.737 Y-1.847 E.00041
G1 X-14.922 Y-2.114 E.00023
M73 P30 R3
G1 X-14.922 Y4.603 E.00484
G1 X-15.057 Y4.644 E.0001
G1 X-15.161 Y4.642 E.00007
G1 X-15.261 Y4.614 E.00007
G1 X-15.374 Y4.538 E.0001
G1 X-15.374 Y-2.476 E.00505
M73 P31 R3
G1 X-15.561 Y-2.564 E.00015
G1 X-15.826 Y-2.63 E.0002
G1 X-15.826 Y3.556 E.00445
G1 X-16.279 Y2.455 E.00086
G1 X-16.279 Y-2.629 E.00366
G1 X-16.397 Y-2.614 E.00009
M73 P32 R3
G1 X-16.731 Y-2.489 E.00026
G1 X-16.731 Y1.355 E.00277
G1 X-16.954 Y.813 E.00042
G1 X-17.183 Y.167 E.00049
G1 X-17.183 Y-2.404 E.00185
; stop printing object Podzj_r.stl id:0 copy 0
;LAYER_CHANGE
;Z:1
;HEIGHT:0.2
;BEFORE_LAYER_CHANGE
G92 E0.0
;1


G1 E-.007 F120
;WIPE_START
G1 F384
G1 X-17.183 Y-2.394 E-.00285
;WIPE_END
G1 E-.00015 F120
G1 Z1 F360
;AFTER_LAYER_CHANGE
;1
; printing object Podzj_r.stl id:0 copy 0
G1 X-16.872 Y-2.621 F480
G1 E.01 F120
G1 F300
G1 X-15.791 Y-2.621 E.00078
G1 X-15.561 Y-2.564 E.00017
G1 X-15.299 Y-2.44 E.00021
G1 X-15.07 Y-2.273 E.0002
G1 X-14.973 Y-2.169 E.0001
G1 X-17.156 Y-2.169 E.00157
G1 X-17.277 Y-2.032 E.00013
G1 X-17.446 Y-1.717 E.00026
G1 X-14.669 Y-1.717 E.002
M73 P33 R3
G1 X-14.43 Y-1.264 E.00037
G1 X-17.554 Y-1.264 E.00225
G1 X-17.548 Y-.954 E.00022
G1 X-17.516 Y-.812 E.0001
G1 X-14.192 Y-.812 E.00239
G1 X-13.954 Y-.36 E.00037
G1 X-17.37 Y-.36 E.00246
M73 P34 R3
G1 X-17.21 Y.092 E.00035
G1 X-13.715 Y.092 E.00252
G1 X-13.488 Y.442 E.0003
G1 X-13.362 Y.545 E.00012
G1 X-17.049 Y.545 E.00265
M73 P34 R2
G1 X-16.878 Y.997 E.00035
G1 X-8.442 Y.997 E.00607
M73 P35 R2
G1 X-8.271 Y.545 E.00035
G1 X-11.959 Y.545 E.00265
G1 X-11.832 Y.442 E.00012
G1 X-11.605 Y.092 E.0003
G1 X-8.111 Y.092 E.00252
G1 X-7.95 Y-.36 E.00035
G1 X-11.367 Y-.36 E.00246
M73 P36 R2
G1 X-11.128 Y-.812 E.00037
G1 X-7.805 Y-.812 E.00239
G1 X-7.773 Y-.954 E.0001
G1 X-7.767 Y-1.264 E.00022
G1 X-10.89 Y-1.264 E.00225
G1 X-10.652 Y-1.717 E.00037
G1 X-7.875 Y-1.717 E.002
G1 X-8.044 Y-2.032 E.00026
G1 X-8.164 Y-2.169 E.00013
G1 X-10.347 Y-2.169 E.00157
M73 P37 R2
G1 X-10.25 Y-2.273 E.0001
G1 X-10.021 Y-2.44 E.0002
G1 X-9.759 Y-2.564 E.00021
G1 X-9.529 Y-2.621 E.00017
G1 X-8.449 Y-2.621 E.00078
G1 E-.007 F120
;WIPE_START
G1 F384
G1 X-8.458 Y-2.621 E-.00285
;WIPE_END
G1 E-.00015 F120
G1 Z1.2 F360
G1 X-8.43 Y1.449 F480
G1 Z1 F360
G1 E.01 F120
G1 F300
G1 X-16.692 Y1.449 E.00595
M73 P38 R2
G1 X-16.506 Y1.902 E.00035
G1 X-8.814 Y1.902 E.00554
G1 X-9 Y2.354 E.00035
G1 X-16.32 Y2.354 E.00527
M73 P39 R2
G1 X-16.134 Y2.806 E.00035
G1 X-9.186 Y2.806 E.005
G1 X-9.372 Y3.259 E.00035
G1 X-11.563 Y3.259 E.00158
M73 P40 R2
G1 X-11.189 Y3.711 E.00042
G1 X-9.558 Y3.711 E.00117
G1 X-9.744 Y4.163 E.00035
G1 X-10.816 Y4.163 E.00077
G1 X-10.55 Y4.487 E.0003
G1 X-10.464 Y4.567 E.00008
G1 X-10.375 Y4.616 E.00007
G1 X-9.766 Y4.616 E.00044
G1 E-.007 F120
;WIPE_START
G1 F384
G1 X-9.776 Y4.616 E-.00285
;WIPE_END
G1 E-.00015 F120
G1 Z1.2 F360
G1 X-13.496 Y3.259 F480
G1 Z1 F360
G1 E.01 F120
G1 F300
G1 X-15.949 Y3.259 E.00177
G1 X-15.763 Y3.711 E.00035
G1 X-14.132 Y3.711 E.00117
G1 X-14.504 Y4.163 E.00042
G1 X-15.577 Y4.163 E.00077
M73 P41 R2
G1 X-15.43 Y4.481 E.00025
G1 X-15.354 Y4.558 E.00008
G1 X-15.261 Y4.614 E.00008
G1 X-14.64 Y4.616 E.00045
; stop printing object Podzj_r.stl id:0 copy 0
;LAYER_CHANGE
;Z:1.2
;HEIGHT:0.2
;BEFORE_LAYER_CHANGE
G92 E0.0
;1.2


G1 E-.007 F120
;WIPE_START
G1 F384
G1 X-14.65 Y4.616 E-.00285
;WIPE_END
G1 E-.00015 F120
G1 Z1.2 F360
;AFTER_LAYER_CHANGE
;1.2
; printing object Podzj_r.stl id:0 copy 0
G1 Z1.4
G1 X-17.183 Y-2.404 F480
G1 Z1.2 F360
G1 E.01 F120
G1 F300
G1 X-17.183 Y.167 E.00185
G1 X-16.954 Y.813 E.00049
G1 X-16.731 Y1.355 E.00042
G1 X-16.731 Y-2.489 E.00277
M73 P42 R2
G1 X-16.397 Y-2.614 E.00026
G1 X-16.279 Y-2.629 E.00009
G1 X-16.279 Y2.455 E.00366
G1 X-15.826 Y3.556 E.00086
G1 X-15.826 Y-2.63 E.00445
M73 P43 R2
G1 X-15.561 Y-2.564 E.0002
G1 X-15.374 Y-2.476 E.00015
G1 X-15.374 Y4.538 E.00505
G1 X-15.261 Y4.614 E.0001
G1 X-15.161 Y4.642 E.00007
G1 X-15.057 Y4.644 E.00007
G1 X-14.922 Y4.603 E.0001
G1 X-14.922 Y-2.114 E.00484
M73 P44 R2
G1 X-14.737 Y-1.847 E.00023
G1 X-14.469 Y-1.339 E.00041
G1 X-14.469 Y4.121 E.00393
G1 X-14.017 Y3.572 E.00051
G1 X-14.017 Y-.48 E.00292
G1 X-13.655 Y.208 E.00056
G1 X-13.565 Y.334 E.00011
G1 X-13.565 Y3.07 E.00197
M73 P45 R2
G1 X-13.276 Y2.886 E.00025
G1 X-13.113 Y2.83 E.00012
G1 X-13.113 Y.696 E.00154
G1 X-12.959 Y.761 E.00012
G1 X-12.66 Y.801 E.00022
G1 X-12.66 Y2.748 E.0014
G1 X-12.349 Y2.782 E.00023
G1 X-12.208 Y2.83 E.00011
G1 X-12.208 Y.696 E.00154
G1 X-12.075 Y.639 E.0001
G1 X-11.832 Y.442 E.00022
G1 X-11.756 Y.334 E.0001
G1 X-11.756 Y3.07 E.00197
G1 X-11.555 Y3.266 E.0002
M73 P46 R2
G1 X-11.303 Y3.572 E.00029
G1 X-11.303 Y-.48 E.00292
G1 X-10.851 Y-1.339 E.0007
G1 X-10.851 Y4.121 E.00393
G1 X-10.55 Y4.487 E.00034
G1 X-10.399 Y4.603 E.00014
G1 X-10.399 Y-2.114 E.00484
M73 P47 R2
G1 X-10.25 Y-2.273 E.00016
G1 X-10.021 Y-2.44 E.0002
G1 X-9.946 Y-2.476 E.00006
G1 X-9.946 Y4.538 E.00505
G1 X-9.833 Y4.38 E.00014
G1 X-9.494 Y3.556 E.00064
G1 X-9.494 Y-2.63 E.00445
M73 P48 R2
G1 X-9.195 Y-2.65 E.00022
G1 X-9.042 Y-2.629 E.00011
G1 X-9.042 Y2.455 E.00366
G1 X-8.589 Y1.355 E.00086
G1 X-8.589 Y-2.489 E.00277
M73 P49 R2
G1 X-8.447 Y-2.414 E.00012
G1 X-8.231 Y-2.245 E.0002
G1 X-8.137 Y-2.138 E.0001
G1 X-8.137 Y.714 E.00205
; stop printing object Podzj_r.stl id:0 copy 0
;LAYER_CHANGE
;Z:1.4
;HEIGHT:0.2
;BEFORE_LAYER_CHANGE
G92 E0.0
;1.4


G1 E-.007 F120
;WIPE_START
G1 F384
G1 X-8.137 Y.705 E-.00285
;WIPE_END
G1 E-.00015 F120
G1 Z1.4 F360
;AFTER_LAYER_CHANGE
;1.4
; printing object Podzj_r.stl id:0 copy 0
G1 X-8.43 Y1.449 F480
G1 E.01 F120
G1 F300
G1 X-16.692 Y1.449 E.00595
M73 P50 R2
G1 X-16.506 Y1.902 E.00035
G1 X-8.814 Y1.902 E.00554
G1 X-9 Y2.354 E.00035
G1 X-16.32 Y2.354 E.00527
M73 P51 R2
G1 X-16.134 Y2.806 E.00035
G1 X-9.186 Y2.806 E.005
G1 X-9.372 Y3.259 E.00035
G1 X-11.563 Y3.259 E.00158
M73 P52 R2
G1 X-11.189 Y3.711 E.00042
G1 X-9.558 Y3.711 E.00117
G1 X-9.744 Y4.163 E.00035
G1 X-10.816 Y4.163 E.00077
G1 X-10.55 Y4.487 E.0003
G1 X-10.464 Y4.567 E.00008
G1 X-10.375 Y4.616 E.00007
G1 X-9.766 Y4.616 E.00044
G1 E-.007 F120
;WIPE_START
G1 F384
G1 X-9.776 Y4.616 E-.00285
;WIPE_END
G1 E-.00015 F120
G1 Z1.6 F360
G1 X-13.496 Y3.259 F480
G1 Z1.4 F360
G1 E.01 F120
G1 F300
G1 X-15.949 Y3.259 E.00177
G1 X-15.763 Y3.711 E.00035
G1 X-14.132 Y3.711 E.00117
G1 X-14.504 Y4.163 E.00042
G1 X-15.577 Y4.163 E.00077
M73 P53 R2
G1 X-15.43 Y4.481 E.00025
G1 X-15.354 Y4.558 E.00008
G1 X-15.261 Y4.614 E.00008
G1 X-14.64 Y4.616 E.00045
G1 E-.007 F120
;WIPE_START
G1 F384
G1 X-14.65 Y4.616 E-.00285
;WIPE_END
G1 E-.00015 F120
G1 Z1.6 F360
G1 X-16.872 Y-2.621 F480
G1 Z1.4 F360
G1 E.01 F120
G1 F300
G1 X-15.791 Y-2.621 E.00078
G1 X-15.561 Y-2.564 E.00017
G1 X-15.299 Y-2.44 E.00021
G1 X-15.07 Y-2.273 E.0002
G1 X-14.973 Y-2.169 E.0001
G1 X-17.156 Y-2.169 E.00157
G1 X-17.277 Y-2.032 E.00013
G1 X-17.446 Y-1.717 E.00026
G1 X-14.669 Y-1.717 E.002
M73 P54 R2
G1 X-14.43 Y-1.264 E.00037
G1 X-17.554 Y-1.264 E.00225
G1 X-17.548 Y-.954 E.00022
G1 X-17.516 Y-.812 E.0001
G1 X-14.192 Y-.812 E.00239
G1 X-13.954 Y-.36 E.00037
