; generated by PrusaSlicer 2.4.0+win64 on 2022-10-18 at 09:50:24 UTC


;
;

;
;
; 

; external perimeters extrusion width = 0.45mm
; perimeters extrusion width = 0.45mm
; infill extrusion width = 0.45mm
; solid infill extrusion width = 0.45mm
; top infill extrusion width = 0.40mm
; first layer extrusion width = 0.42mm
;TYPE:Custom
G92 E0
M302 S0
G90; set temperature and wait for it to be reached
M83 ; use relative distances for extrusion
;LAYER_CHANGE
;Z:0.2
;HEIGHT:0.2
;BEFORE_LAYER_CHANGE
G92 E0.0
;0.2


G1 E-.01 F120
G1 Z.2 F720
;AFTER_LAYER_CHANGE
;0.2
; printing object Podzj_r.stl id:0 copy 0
G1 Z.4
G1 X-16.425 Y-.691 F9000
G1 Z.2 F720
G1 E.01 F120
M204 P800
;TYPE:Internal infill
;WIDTH:0.42
G1 F1200
G1 X-18.291 Y-.691 E.00124
G1 X-18.517 Y-.471 E.00021
G1 X-18.664 Y-.239 E.00018
G1 X-16.329 Y-.239 E.00156
G1 X-16.235 Y.017 E.00018
G1 X-16.207 Y.214 E.00013
G1 X-18.902 Y.214 E.0018
G1 X-19.141 Y.666 E.00034
G1 X-16.248 Y.666 E.00193
G1 X-16.401 Y1.118 E.00032
G1 X-19.379 Y1.118 E.00199
G1 X-19.617 Y1.571 E.00034
G1 X-16.561 Y1.571 E.00204
G1 X-16.722 Y2.023 E.00032
G1 X-20.17 Y2.023 E.0023
M204 P1000
G1 E-.007 F120
;WIPE_START
G1 F7200
G1 X-19.99 Y2.023 E-.00285
;WIPE_END
G1 E-.00015 F120
G1 Z.4 F720
G1 X-17.442 Y4.285 F9000
G1 Z.2 F720
G1 E.01 F120
M204 P800
G1 F1200
G1 X-20.031 Y4.285 E.00173
G1 X-19.886 Y4.374 E.00011
G1 X-19.54 Y4.737 E.00033
G1 X-17.826 Y4.737 E.00114
G1 X-18.012 Y5.189 E.00033
G1 X-19.168 Y5.189 E.00077
G1 X-18.795 Y5.641 E.00039
G1 X-18 Y5.641 E.00053
M204 P1000
G1 E-.007 F120
;WIPE_START
G1 F7200
G1 X-18.18 Y5.641 E-.00285
;WIPE_END
G1 E-.00015 F120
G1 Z.4 F720
G1 X-23.797 Y5.641 F9000
G1 Z.2 F720
G1 E.01 F120
M204 P800
G1 F1200
G1 X-23.002 Y5.641 E.00053
G1 X-22.629 Y5.189 E.00039
G1 X-23.785 Y5.189 E.00077
G1 X-23.97 Y4.737 E.00033
G1 X-22.257 Y4.737 E.00114
M73 P1 R4
G1 X-21.911 Y4.374 E.00033
G1 X-21.766 Y4.285 E.00011
G1 X-24.156 Y4.285 E.00159
G1 X-24.342 Y3.832 E.00033
G1 X-17.455 Y3.832 E.00459
G1 X-17.269 Y3.38 E.00033
G1 X-24.528 Y3.38 E.00484
G1 X-24.714 Y2.928 E.00033
G1 X-17.083 Y2.928 E.00509
G1 X-16.897 Y2.475 E.00033
G1 X-24.9 Y2.475 E.00534
G1 X-25.075 Y2.023 E.00032
G1 X-21.899 Y2.023 E.00212
G1 X-22.064 Y1.791 E.00019
G1 X-22.18 Y1.571 E.00017
G1 X-25.236 Y1.571 E.00204
G1 X-25.396 Y1.118 E.00032
G1 X-22.418 Y1.118 E.00199
G1 X-22.656 Y.666 E.00034
G1 X-25.549 Y.666 E.00193
M73 P2 R4
G1 X-25.587 Y.498 E.00012
G1 X-25.59 Y.214 E.00019
G1 X-22.895 Y.214 E.0018
G1 X-23.133 Y-.239 E.00034
G1 X-25.468 Y-.239 E.00156
G1 X-25.352 Y-.436 E.00015
G1 X-25.19 Y-.621 E.00016
G1 X-25.1 Y-.691 E.00008
G1 X-23.235 Y-.691 E.00124
M204 P1000
; stop printing object Podzj_r.stl id:0 copy 0
;LAYER_CHANGE
;Z:0.4
;HEIGHT:0.2
;BEFORE_LAYER_CHANGE
G92 E0.0
;0.4


G1 E-.007 F120
;WIPE_START
G1 F7200
G1 X-23.415 Y-.691 E-.00285
;WIPE_END
G1 E-.00015 F120
G1 Z.4 F720
;AFTER_LAYER_CHANGE
;0.4
; printing object Podzj_r.stl id:0 copy 0
G1 Z.6
G1 X-25.422 Y-.926 F9000
G1 Z.4 F720
G1 E.01 F120
;WIDTH:0.45
G1 F300
G1 X-25.422 Y1.645 E.00185
G1 X-25.192 Y2.291 E.00049
G1 X-24.969 Y2.833 E.00042
G1 X-24.969 Y-1.01 E.00277
G1 X-24.635 Y-1.135 E.00026
G1 X-24.517 Y-1.151 E.00009
G1 X-24.517 Y3.934 E.00366
M73 P3 R4
G1 X-24.065 Y5.034 E.00086
G1 X-24.065 Y-1.152 E.00445
G1 X-23.799 Y-1.085 E.0002
G1 X-23.612 Y-.997 E.00015
G1 X-23.612 Y6.016 E.00505
M73 P4 R3
G1 X-23.499 Y6.092 E.0001
G1 X-23.399 Y6.12 E.00007
G1 X-23.295 Y6.122 E.00007
G1 X-23.16 Y6.081 E.0001
G1 X-23.16 Y-.636 E.00484
M73 P5 R3
G1 X-22.976 Y-.369 E.00023
G1 X-22.708 Y.139 E.00041
G1 X-22.708 Y5.599 E.00393
G1 X-22.255 Y5.05 E.00051
G1 X-22.255 Y.998 E.00292
M73 P6 R3
G1 X-21.893 Y1.686 E.00056
G1 X-21.803 Y1.812 E.00011
G1 X-21.803 Y4.548 E.00197
G1 X-21.514 Y4.364 E.00025
G1 X-21.351 Y4.309 E.00012
G1 X-21.351 Y2.174 E.00154
G1 X-21.197 Y2.24 E.00012
G1 X-20.898 Y2.28 E.00022
G1 X-20.898 Y4.226 E.0014
G1 X-20.587 Y4.261 E.00023
G1 X-20.446 Y4.309 E.00011
G1 X-20.446 Y2.174 E.00154
G1 X-20.313 Y2.117 E.0001
G1 X-20.071 Y1.92 E.00022
G1 X-19.994 Y1.812 E.0001
G1 X-19.994 Y4.548 E.00197
M73 P7 R3
G1 X-19.794 Y4.744 E.0002
G1 X-19.541 Y5.05 E.00029
G1 X-19.541 Y.998 E.00292
G1 X-19.089 Y.139 E.0007
G1 X-19.089 Y5.599 E.00393
M73 P8 R3
G1 X-18.788 Y5.965 E.00034
G1 X-18.637 Y6.081 E.00014
G1 X-18.637 Y-.636 E.00484
G1 X-18.488 Y-.794 E.00016
G1 X-18.259 Y-.962 E.0002
G1 X-18.185 Y-.997 E.00006
G1 X-18.185 Y6.016 E.00505
M73 P9 R3
G1 X-18.071 Y5.858 E.00014
G1 X-17.732 Y5.034 E.00064
G1 X-17.732 Y-1.152 E.00445
G1 X-17.396 Y-1.166 E.00024
G1 X-17.28 Y-1.151 E.00008
G1 X-17.28 Y3.934 E.00366
M73 P10 R3
G1 X-16.828 Y2.833 E.00086
G1 X-16.828 Y-1.01 E.00277
G1 X-16.685 Y-.935 E.00012
G1 X-16.469 Y-.767 E.0002
G1 X-16.375 Y-.66 E.0001
G1 X-16.375 Y2.192 E.00205
; stop printing object Podzj_r.stl id:0 copy 0
;LAYER_CHANGE
;Z:0.6
;HEIGHT:0.2
;BEFORE_LAYER_CHANGE
G92 E0.0
;0.6


G1 E-.007 F120
;WIPE_START
G1 F7200
G1 X-16.375 Y2.012 E-.00285
;WIPE_END
G1 E-.00015 F120
G1 Z.6 F720
;AFTER_LAYER_CHANGE
;0.6
; printing object Podzj_r.stl id:0 copy 0
M73 P11 R3
G1 X-16.668 Y2.928 F9000
G1 E.01 F120
G1 F300
G1 X-24.93 Y2.928 E.00595
G1 X-24.744 Y3.38 E.00035
G1 X-17.052 Y3.38 E.00554
M73 P12 R3
G1 X-17.238 Y3.832 E.00035
G1 X-24.559 Y3.832 E.00527
G1 X-24.373 Y4.285 E.00035
M73 P13 R3
G1 X-17.424 Y4.285 E.005
G1 X-17.61 Y4.737 E.00035
G1 X-19.801 Y4.737 E.00158
G1 X-19.427 Y5.189 E.00042
G1 X-17.796 Y5.189 E.00117
G1 X-17.982 Y5.641 E.00035
G1 X-19.054 Y5.641 E.00077
M73 P14 R3
G1 X-18.788 Y5.965 E.0003
G1 X-18.703 Y6.045 E.00008
G1 X-18.613 Y6.094 E.00007
G1 X-18.004 Y6.094 E.00044
G1 E-.007 F120
;WIPE_START
G1 F7200
G1 X-18.184 Y6.094 E-.00285
;WIPE_END
G1 E-.00015 F120
G1 Z.8 F720
G1 X-21.734 Y4.737 F9000
G1 Z.6 F720
G1 E.01 F120
G1 F300
G1 X-24.187 Y4.737 E.00177
G1 X-24.001 Y5.189 E.00035
G1 X-22.37 Y5.189 E.00117
G1 X-22.743 Y5.641 E.00042
G1 X-23.815 Y5.641 E.00077
G1 X-23.668 Y5.959 E.00025
G1 X-23.592 Y6.037 E.00008
G1 X-23.499 Y6.092 E.00008
G1 X-22.879 Y6.094 E.00045
G1 E-.007 F120
;WIPE_START
G1 F7200
G1 X-23.059 Y6.093 E-.00285
;WIPE_END
G1 E-.00015 F120
G1 Z.8 F720
G1 X-25.11 Y-1.143 F9000
G1 Z.6 F720
G1 E.01 F120
G1 F300
G1 X-24.029 Y-1.143 E.00078
M73 P15 R3
G1 X-23.799 Y-1.085 E.00017
G1 X-23.538 Y-.962 E.00021
G1 X-23.308 Y-.794 E.0002
G1 X-23.211 Y-.691 E.0001
G1 X-25.394 Y-.691 E.00157
G1 X-25.515 Y-.553 E.00013
G1 X-25.684 Y-.239 E.00026
G1 X-22.907 Y-.239 E.002
G1 X-22.668 Y.214 E.00037
G1 X-25.792 Y.214 E.00225
G1 X-25.786 Y.524 E.00022
G1 X-25.754 Y.666 E.0001
G1 X-22.43 Y.666 E.00239
M73 P16 R3
G1 X-22.192 Y1.118 E.00037
G1 X-25.608 Y1.118 E.00246
G1 X-25.448 Y1.571 E.00035
G1 X-21.954 Y1.571 E.00252
G1 X-21.726 Y1.92 E.0003
G1 X-21.6 Y2.023 E.00012
G1 X-25.287 Y2.023 E.00265
M73 P17 R3
G1 X-25.116 Y2.475 E.00035
G1 X-16.68 Y2.475 E.00607
G1 X-16.51 Y2.023 E.00035
G1 X-20.197 Y2.023 E.00265
M73 P18 R3
G1 X-20.071 Y1.92 E.00012
G1 X-19.843 Y1.571 E.0003
G1 X-16.349 Y1.571 E.00252
G1 X-16.188 Y1.118 E.00035
G1 X-19.605 Y1.118 E.00246
G1 X-19.367 Y.666 E.00037
G1 X-16.043 Y.666 E.00239
M73 P19 R3
G1 X-16.011 Y.524 E.0001
G1 X-16.005 Y.214 E.00022
G1 X-19.128 Y.214 E.00225
G1 X-18.89 Y-.239 E.00037
G1 X-16.113 Y-.239 E.002
G1 X-16.282 Y-.553 E.00026
G1 X-16.403 Y-.691 E.00013
G1 X-18.585 Y-.691 E.00157
G1 X-18.488 Y-.794 E.0001
G1 X-18.259 Y-.962 E.0002
G1 X-17.998 Y-1.085 E.00021
G1 X-17.768 Y-1.143 E.00017
G1 X-16.687 Y-1.143 E.00078
; stop printing object Podzj_r.stl id:0 copy 0
;LAYER_CHANGE
;Z:0.8
;HEIGHT:0.2
;BEFORE_LAYER_CHANGE
G92 E0.0
;0.8


M73 P20 R3
G1 E-.007 F120
;WIPE_START
G1 F7200
G1 X-16.867 Y-1.143 E-.00285
;WIPE_END
G1 E-.00015 F120
G1 Z.8 F720
;AFTER_LAYER_CHANGE
;0.8
; printing object Podzj_r.stl id:0 copy 0
G1 Z1
G1 X-16.375 Y2.192 F9000
G1 Z.8 F720
G1 E.01 F120
G1 F300
G1 X-16.375 Y-.66 E.00205
G1 X-16.469 Y-.767 E.0001
G1 X-16.685 Y-.935 E.0002
G1 X-16.828 Y-1.01 E.00012
G1 X-16.828 Y2.833 E.00277
G1 X-17.28 Y3.934 E.00086
G1 X-17.28 Y-1.151 E.00366
M73 P21 R3
G1 X-17.433 Y-1.171 E.00011
G1 X-17.732 Y-1.152 E.00022
G1 X-17.732 Y5.034 E.00445
G1 X-18.071 Y5.858 E.00064
G1 X-18.185 Y6.016 E.00014
G1 X-18.185 Y-.997 E.00505
M73 P22 R3
G1 X-18.259 Y-.962 E.00006
G1 X-18.488 Y-.794 E.0002
G1 X-18.637 Y-.636 E.00016
G1 X-18.637 Y6.081 E.00484
G1 X-18.788 Y5.965 E.00014
G1 X-19.089 Y5.599 E.00034
M73 P23 R3
G1 X-19.089 Y.139 E.00393
G1 X-19.541 Y.998 E.0007
G1 X-19.541 Y5.05 E.00292
G1 X-19.794 Y4.744 E.00029
G1 X-19.994 Y4.548 E.0002
G1 X-19.994 Y1.812 E.00197
M73 P24 R3
G1 X-20.071 Y1.92 E.0001
G1 X-20.313 Y2.117 E.00022
G1 X-20.446 Y2.174 E.0001
G1 X-20.446 Y4.309 E.00154
G1 X-20.587 Y4.261 E.00011
G1 X-20.898 Y4.226 E.00023
G1 X-20.898 Y2.28 E.0014
G1 X-21.197 Y2.24 E.00022
G1 X-21.351 Y2.174 E.00012
G1 X-21.351 Y4.309 E.00154
G1 X-21.514 Y4.364 E.00012
G1 X-21.803 Y4.548 E.00025
G1 X-21.803 Y1.812 E.00197
G1 X-21.893 Y1.686 E.00011
M73 P25 R3
G1 X-22.255 Y.998 E.00056
G1 X-22.255 Y5.05 E.00292
G1 X-22.708 Y5.599 E.00051
G1 X-22.708 Y.139 E.00393
G1 X-22.976 Y-.369 E.00041
G1 X-23.16 Y-.636 E.00023
G1 X-23.16 Y6.081 E.00484
M73 P26 R3
G1 X-23.295 Y6.122 E.0001
G1 X-23.399 Y6.12 E.00007
G1 X-23.499 Y6.092 E.00007
G1 X-23.612 Y6.016 E.0001
G1 X-23.612 Y-.997 E.00505
M73 P27 R3
G1 X-23.799 Y-1.085 E.00015
G1 X-24.065 Y-1.152 E.0002
G1 X-24.065 Y5.034 E.00445
G1 X-24.517 Y3.934 E.00086
G1 X-24.517 Y-1.151 E.00366
M73 P28 R3
G1 X-24.635 Y-1.135 E.00009
G1 X-24.969 Y-1.01 E.00026
G1 X-24.969 Y2.833 E.00277
M73 P28 R2
G1 X-25.192 Y2.291 E.00042
G1 X-25.422 Y1.645 E.00049
G1 X-25.422 Y-.926 E.00185
; stop printing object Podzj_r.stl id:0 copy 0
;LAYER_CHANGE
;Z:1
;HEIGHT:0.2
;BEFORE_LAYER_CHANGE
G92 E0.0
;1


G1 E-.007 F120
;WIPE_START
G1 F7200
G1 X-25.422 Y-.746 E-.00285
;WIPE_END
G1 E-.00015 F120
G1 Z1 F720
;AFTER_LAYER_CHANGE
;1
; printing object Podzj_r.stl id:0 copy 0
G1 X-25.11 Y-1.143 F9000
G1 E.01 F120
G1 F300
G1 X-24.029 Y-1.143 E.00078
G1 X-23.799 Y-1.085 E.00017
G1 X-23.538 Y-.962 E.00021
G1 X-23.308 Y-.794 E.0002
G1 X-23.211 Y-.691 E.0001
G1 X-25.394 Y-.691 E.00157
M73 P29 R2
G1 X-25.515 Y-.553 E.00013
G1 X-25.684 Y-.239 E.00026
G1 X-22.907 Y-.239 E.002
G1 X-22.668 Y.214 E.00037
G1 X-25.792 Y.214 E.00225
G1 X-25.786 Y.524 E.00022
G1 X-25.754 Y.666 E.0001
G1 X-22.43 Y.666 E.00239
M73 P30 R2
G1 X-22.192 Y1.118 E.00037
G1 X-25.608 Y1.118 E.00246
G1 X-25.448 Y1.571 E.00035
G1 X-21.954 Y1.571 E.00252
G1 X-21.726 Y1.92 E.0003
G1 X-21.6 Y2.023 E.00012
G1 X-25.287 Y2.023 E.00265
G1 X-25.116 Y2.475 E.00035
M73 P31 R2
G1 X-16.68 Y2.475 E.00607
G1 X-16.51 Y2.023 E.00035
G1 X-20.197 Y2.023 E.00265
M73 P32 R2
G1 X-20.071 Y1.92 E.00012
G1 X-19.843 Y1.571 E.0003
G1 X-16.349 Y1.571 E.00252
G1 X-16.188 Y1.118 E.00035
G1 X-19.605 Y1.118 E.00246
G1 X-19.367 Y.666 E.00037
G1 X-16.043 Y.666 E.00239
G1 X-16.011 Y.524 E.0001
G1 X-16.005 Y.214 E.00022
M73 P33 R2
G1 X-19.128 Y.214 E.00225
G1 X-18.89 Y-.239 E.00037
G1 X-16.113 Y-.239 E.002
G1 X-16.282 Y-.553 E.00026
G1 X-16.403 Y-.691 E.00013
G1 X-18.585 Y-.691 E.00157
G1 X-18.488 Y-.794 E.0001
G1 X-18.259 Y-.962 E.0002
G1 X-17.998 Y-1.085 E.00021
G1 X-17.768 Y-1.143 E.00017
G1 X-16.687 Y-1.143 E.00078
G1 E-.007 F120
;WIPE_START
G1 F7200
G1 X-16.867 Y-1.143 E-.00285
;WIPE_END
G1 E-.00015 F120
G1 Z1.2 F720
G1 X-16.668 Y2.928 F9000
G1 Z1 F720
G1 E.01 F120
G1 F300
G1 X-24.93 Y2.928 E.00595
M73 P34 R2
G1 X-24.744 Y3.38 E.00035
G1 X-17.052 Y3.38 E.00554
M73 P35 R2
G1 X-17.238 Y3.832 E.00035
G1 X-24.559 Y3.832 E.00527
G1 X-24.373 Y4.285 E.00035
G1 X-17.424 Y4.285 E.005
M73 P36 R2
G1 X-17.61 Y4.737 E.00035
G1 X-19.801 Y4.737 E.00158
G1 X-19.427 Y5.189 E.00042
G1 X-17.796 Y5.189 E.00117
G1 X-17.982 Y5.641 E.00035
G1 X-19.054 Y5.641 E.00077
M73 P37 R2
G1 X-18.788 Y5.965 E.0003
G1 X-18.703 Y6.045 E.00008
G1 X-18.613 Y6.094 E.00007
G1 X-18.004 Y6.094 E.00044
G1 E-.007 F120
;WIPE_START
G1 F7200
G1 X-18.184 Y6.094 E-.00285
;WIPE_END
G1 E-.00015 F120
G1 Z1.2 F720
G1 X-21.734 Y4.737 F9000
G1 Z1 F720
G1 E.01 F120
G1 F300
G1 X-24.187 Y4.737 E.00177
G1 X-24.001 Y5.189 E.00035
G1 X-22.37 Y5.189 E.00117
G1 X-22.743 Y5.641 E.00042
G1 X-23.815 Y5.641 E.00077
G1 X-23.668 Y5.959 E.00025
G1 X-23.592 Y6.037 E.00008
G1 X-23.499 Y6.092 E.00008
G1 X-22.879 Y6.094 E.00045
; stop printing object Podzj_r.stl id:0 copy 0
;LAYER_CHANGE
;Z:1.2
;HEIGHT:0.2
;BEFORE_LAYER_CHANGE
G92 E0.0
;1.2


G1 E-.007 F120
;WIPE_START
G1 F7200
G1 X-23.059 Y6.093 E-.00285
;WIPE_END
G1 E-.00015 F120
G1 Z1.2 F720
;AFTER_LAYER_CHANGE
;1.2
; printing object Podzj_r.stl id:0 copy 0
G1 Z1.4
G1 X-25.422 Y-.926 F9000
G1 Z1.2 F720
G1 E.01 F120
G1 F300
G1 X-25.422 Y1.645 E.00185
M73 P38 R2
G1 X-25.192 Y2.291 E.00049
G1 X-24.969 Y2.833 E.00042
G1 X-24.969 Y-1.01 E.00277
G1 X-24.635 Y-1.135 E.00026
G1 X-24.517 Y-1.151 E.00009
G1 X-24.517 Y3.934 E.00366
G1 X-24.065 Y5.034 E.00086
M73 P39 R2
G1 X-24.065 Y-1.152 E.00445
G1 X-23.799 Y-1.085 E.0002
G1 X-23.612 Y-.997 E.00015
G1 X-23.612 Y6.016 E.00505
M73 P40 R2
G1 X-23.499 Y6.092 E.0001
G1 X-23.399 Y6.12 E.00007
G1 X-23.295 Y6.122 E.00007
G1 X-23.16 Y6.081 E.0001
G1 X-23.16 Y-.636 E.00484
G1 X-22.976 Y-.369 E.00023
G1 X-22.708 Y.139 E.00041
G1 X-22.708 Y5.599 E.00393
M73 P41 R2
G1 X-22.255 Y5.05 E.00051
G1 X-22.255 Y.998 E.00292
G1 X-21.893 Y1.686 E.00056
G1 X-21.803 Y1.812 E.00011
G1 X-21.803 Y4.548 E.00197
G1 X-21.514 Y4.364 E.00025
G1 X-21.351 Y4.309 E.00012
G1 X-21.351 Y2.174 E.00154
M73 P42 R2
G1 X-21.197 Y2.24 E.00012
G1 X-20.898 Y2.28 E.00022
G1 X-20.898 Y4.226 E.0014
G1 X-20.587 Y4.261 E.00023
G1 X-20.446 Y4.309 E.00011
G1 X-20.446 Y2.174 E.00154
G1 X-20.313 Y2.117 E.0001
G1 X-20.071 Y1.92 E.00022
G1 X-19.994 Y1.812 E.0001
G1 X-19.994 Y4.548 E.00197
G1 X-19.794 Y4.744 E.0002
G1 X-19.541 Y5.05 E.00029
G1 X-19.541 Y.998 E.00292
M73 P43 R2
G1 X-19.089 Y.139 E.0007
G1 X-19.089 Y5.599 E.00393
G1 X-18.788 Y5.965 E.00034
G1 X-18.637 Y6.081 E.00014
G1 X-18.637 Y-.636 E.00484
M73 P44 R2
G1 X-18.488 Y-.794 E.00016
G1 X-18.259 Y-.962 E.0002
G1 X-18.185 Y-.997 E.00006
G1 X-18.185 Y6.016 E.00505
G1 X-18.071 Y5.858 E.00014
G1 X-17.732 Y5.034 E.00064
G1 X-17.732 Y-1.152 E.00445
M73 P45 R2
G1 X-17.433 Y-1.171 E.00022
G1 X-17.28 Y-1.151 E.00011
G1 X-17.28 Y3.934 E.00366
G1 X-16.828 Y2.833 E.00086
G1 X-16.828 Y-1.01 E.00277
M73 P46 R2
G1 X-16.685 Y-.935 E.00012
G1 X-16.469 Y-.767 E.0002
G1 X-16.375 Y-.66 E.0001
G1 X-16.375 Y2.192 E.00205
; stop printing object Podzj_r.stl id:0 copy 0
;LAYER_CHANGE
;Z:1.4
;HEIGHT:0.2
;BEFORE_LAYER_CHANGE
G92 E0.0
;1.4


G1 E-.007 F120
;WIPE_START
G1 F7200
G1 X-16.375 Y2.012 E-.00285
;WIPE_END
G1 E-.00015 F120
G1 Z1.4 F720
;AFTER_LAYER_CHANGE
;1.4
; printing object Podzj_r.stl id:0 copy 0
G1 X-16.668 Y2.928 F9000
G1 E.01 F120
G1 F300
G1 X-24.93 Y2.928 E.00595
M73 P47 R2
G1 X-24.744 Y3.38 E.00035
G1 X-17.052 Y3.38 E.00554
G1 X-17.238 Y3.832 E.00035
G1 X-24.559 Y3.832 E.00527
M73 P48 R2
G1 X-24.373 Y4.285 E.00035
G1 X-17.424 Y4.285 E.005
M73 P49 R2
G1 X-17.61 Y4.737 E.00035
G1 X-19.801 Y4.737 E.00158
G1 X-19.427 Y5.189 E.00042
G1 X-17.796 Y5.189 E.00117
G1 X-17.982 Y5.641 E.00035
G1 X-19.054 Y5.641 E.00077
G1 X-18.788 Y5.965 E.0003
G1 X-18.703 Y6.045 E.00008
G1 X-18.613 Y6.094 E.00007
G1 X-18.004 Y6.094 E.00044
G1 E-.007 F120
;WIPE_START
G1 F7200
G1 X-18.184 Y6.094 E-.00285
;WIPE_END
G1 E-.00015 F120
G1 Z1.6 F720
G1 X-21.734 Y4.737 F9000
G1 Z1.4 F720
G1 E.01 F120
G1 F300
G1 X-24.187 Y4.737 E.00177
M73 P50 R2
G1 X-24.001 Y5.189 E.00035
G1 X-22.37 Y5.189 E.00117
G1 X-22.743 Y5.641 E.00042
G1 X-23.815 Y5.641 E.00077
G1 X-23.668 Y5.959 E.00025
G1 X-23.592 Y6.037 E.00008
G1 X-23.499 Y6.092 E.00008
G1 X-22.879 Y6.094 E.00045
G1 E-.007 F120
;WIPE_START
G1 F7200
G1 X-23.059 Y6.093 E-.00285
;WIPE_END
G1 E-.00015 F120
G1 Z1.6 F720
G1 X-25.11 Y-1.143 F9000
G1 Z1.4 F720
G1 E.01 F120
G1 F300
G1 X-24.029 Y-1.143 E.00078
G1 X-23.799 Y-1.085 E.00017
G1 X-23.538 Y-.962 E.00021
G1 X-23.308 Y-.794 E.0002
G1 X-23.211 Y-.691 E.0001
G1 X-25.394 Y-.691 E.00157
G1 X-25.515 Y-.553 E.00013
G1 X-25.684 Y-.239 E.00026
G1 X-22.907 Y-.239 E.002
M73 P51 R2
G1 X-22.668 Y.214 E.00037
G1 X-25.792 Y.214 E.00225
G1 X-25.786 Y.524 E.00022
G1 X-25.754 Y.666 E.0001
G1 X-22.43 Y.666 E.00239
